X: 8
T: My Home Waltz
I: My Home Waltz	W-5	A	waltz
C: W-5
C: Old-Time
M: 3/4
Z: Transcribed to abc by Mary Lou Knack
R: waltz
K: A
ed| "A"c3 B A2| A2 c2 e2| "D"a2 g2 f2| "A"e4 d2|       c3 B c2| A2 B2 c2| "E7"d3 c d2| B4 ed|
    "A"c3 B A2| A2 c2 e2| "D"a2 g2 f2| "A"e4 d2|       c3 A c2| "G"B3 =G B2| "A"A3 B A2| A4|]
E2| "A"A3 B c2| c3 B c2| e3 d c2| c4 e2|    "E7"d3 c d2| B2 c2 d2| "A"e3 c A2| A4 ce|
    "D"f3 d f2| a3 g f2| "A"e2 d2 c2| a4 d2|       c3 A c2| "G"B3 =G B2| "A"A3 B A2| A4|]
%%text 1/2/99.  For use only by Roaring Jelly members
%%text Also known as "My Own Home", "My Ain Home", and "My Own House".

